X:278
T:score77
L:1/4
Q:1/4=96
M:2/2
I:linebreak $
K:Emin
 z z (b3/2 b/ | b2 g e' | e'2 b g' |$ f' e' c' e' | b3) (b | c' b/a/ a a | e'3) (b |$ c' b/a/ a a | %8
 ^d'2) z z |] %9
